places/32/bookmark-missing.svg

<?xml version="1.0" encoding="UTF-8" standalone="no"?>
<svg
   xmlns:dc="http://purl.org/dc/elements/1.1/"
   xmlns:cc="http://creativecommons.org/ns#"
   xmlns:rdf="http://www.w3.org/1999/02/22-rdf-syntax-ns#"
   xmlns:svg="http://www.w3.org/2000/svg"
   xmlns="http://www.w3.org/2000/svg"
   xmlns:xlink="http://www.w3.org/1999/xlink"
   version="1.1"
   width="32"
   height="32"
   id="svg3005">
  <defs
     id="defs3007">
    <linearGradient
       x1="11.566265"
       y1="22.292103"
       x2="15.214532"
       y2="33.95525"
       id="linearGradient3855-7"
       xlink:href="#linearGradient8265-821-176-38-919-66-249-291"
       gradientUnits="userSpaceOnUse"
       gradientTransform="matrix(0.64444615,0,0,0.64444615,2.163877,14.811363)" />
    <linearGradient
       id="linearGradient8265-821-176-38-919-66-249-291">
      <stop
         id="stop2896"
         style="stop-color:#ffffff;stop-opacity:0.27450982"
         offset="0" />
      <stop
         id="stop2898"
         style="stop-color:#ffffff;stop-opacity:0"
         offset="1" />
    </linearGradient>
    <linearGradient
       x1="29.646643"
       y1="2"
       x2="29.646643"
       y2="43.443626"
       id="linearGradient3851-489"
       xlink:href="#linearGradient3642-778"
       gradientUnits="userSpaceOnUse"
       gradientTransform="matrix(0.64444615,0,0,0.64444615,0.24348387,16.823102)" />
    <linearGradient
       id="linearGradient3642-778">
      <stop
         id="stop2890"
         style="stop-color:#ffffff;stop-opacity:1"
         offset="0" />
      <stop
         id="stop2892"
         style="stop-color:#ffffff;stop-opacity:0"
         offset="1" />
    </linearGradient>
    <radialGradient
       cx="13.138569"
       cy="25.625349"
       r="13.931416"
       fx="13.138569"
       fy="25.625349"
       id="radialGradient3627-317"
       xlink:href="#linearGradient3690-10"
       gradientUnits="userSpaceOnUse"
       gradientTransform="matrix(0,1.7104018,-2.0382599,0,63.162289,-16.657885)" />
    <linearGradient
       id="linearGradient3690-10">
      <stop
         id="stop2874"
         style="stop-color:#e8e8e8;stop-opacity:1"
         offset="0" />
      <stop
         id="stop2876"
         style="stop-color:#d8d8d8;stop-opacity:1"
         offset="0.26238" />
      <stop
         id="stop2878"
         style="stop-color:#c2c2c2;stop-opacity:1"
         offset="0.66093999" />
      <stop
         id="stop2880"
         style="stop-color:#a5a5a5;stop-opacity:1"
         offset="1" />
    </linearGradient>
    <linearGradient
       x1="21.483376"
       y1="36.255058"
       x2="21.483376"
       y2="9.5799999"
       id="linearGradient3629-851"
       xlink:href="#linearGradient3603-727"
       gradientUnits="userSpaceOnUse"
       gradientTransform="matrix(1.0639038,0,0,1.0677384,-6.8562072,-9.162926)" />
    <linearGradient
       id="linearGradient3603-727">
      <stop
         id="stop2884"
         style="stop-color:#707070;stop-opacity:1"
         offset="0" />
      <stop
         id="stop2886"
         style="stop-color:#9e9e9e;stop-opacity:1"
         offset="1" />
    </linearGradient>
    <linearGradient
       id="linearGradient8838-277">
      <stop
         id="stop2868"
         style="stop-color:#000000;stop-opacity:1"
         offset="0" />
      <stop
         id="stop2870"
         style="stop-color:#000000;stop-opacity:0"
         offset="1" />
    </linearGradient>
    <radialGradient
       cx="62.625"
       cy="4.625"
       r="10.625"
       fx="62.625"
       fy="4.625"
       id="radialGradient3003"
       xlink:href="#linearGradient8838-277"
       gradientUnits="userSpaceOnUse"
       gradientTransform="matrix(1.4117648,0,0,0.56470513,-72.411731,23.388235)" />
  </defs>
  <metadata
     id="metadata3010">
    <rdf:RDF>
      <cc:Work
         rdf:about="">
        <dc:format>image/svg+xml</dc:format>
        <dc:type
           rdf:resource="http://purl.org/dc/dcmitype/StillImage" />
        <dc:title />
      </cc:Work>
    </rdf:RDF>
  </metadata>
  <g
     id="layer1">
    <path
       d="m 31.000038,25.999999 c 0,3.313709 -6.715729,6.000001 -15,6.000001 C 7.7157681,32 1.0000383,29.313708 1.0000383,25.999999 1.0000383,22.686292 7.7157681,20 16.000038,20 c 8.284271,0 15,2.686292 15,5.999999 l 0,0 z"
       id="path8836"
       style="opacity:0.3;fill:url(#radialGradient3003);fill-opacity:1;fill-rule:evenodd;stroke:none;stroke-width:0.99999988;marker:none;visibility:visible;display:inline;overflow:visible" />
    <path
       d="m 16.000037,1.4974327 c 0.978784,0 4.13436,7.910881 4.926214,8.488271 0.791851,0.5773873 9.263652,1.1447403 9.566113,2.0789733 0.302461,0.934234 -6.219087,6.39078 -6.521548,7.325013 -0.30246,0.934233 1.777824,9.195756 0.985972,9.773145 -0.791853,0.577387 -7.977967,-3.961163 -8.956752,-3.961163 -0.978783,0 -8.1648972,4.53855 -8.9567501,3.961163 C 6.251434,28.585446 8.331718,20.323922 8.0292575,19.38969 7.7267971,18.455457 1.2052494,12.99891 1.5077102,12.064675 1.810171,11.130444 10.281971,10.563091 11.073825,9.9857037 c 0.791852,-0.57739 3.947429,-8.488271 4.926212,-8.488271 z"
       id="path1307"
       style="fill:url(#radialGradient3627-317);fill-opacity:1;fill-rule:nonzero;stroke:url(#linearGradient3629-851);stroke-width:0.9922713;stroke-linecap:butt;stroke-linejoin:round;stroke-miterlimit:4;stroke-opacity:1;stroke-dasharray:none;stroke-dashoffset:0;marker:none;visibility:visible;display:inline;overflow:visible" />
    <path
       d="m 24.028527,28.150722 c 0,0 -2.782985,-2.41192 -6.493633,-3.154048"
       id="path11014"
       style="opacity:0.3;fill:none;stroke:#ffffff;stroke-width:1;stroke-linecap:butt;stroke-linejoin:miter;stroke-miterlimit:4;stroke-opacity:1;stroke-dasharray:none;display:inline" />
    <path
       d="m 7.7354146,28.150722 c 0,0 2.7829854,-2.41192 6.4936324,-3.154048"
       id="path11985"
       style="opacity:0.3;fill:none;stroke:#ffffff;stroke-width:1;stroke-linecap:butt;stroke-linejoin:miter;stroke-miterlimit:4;stroke-opacity:1;stroke-dasharray:none;display:inline" />
    <path
       d="m 15.71875,19.21875 c -1.347465,2.602599 -2.711843,5.352411 -4.0625,7.9375 a 0.33523869,0.33523869 0 0 1 -0.25,0.1875 C 8.5003276,27.817593 5.4861358,28.334166 2.5625,28.8125 4.6179266,30.901979 6.6017364,33.065692 8.65625,35.125 A 0.33523869,0.33523869 0 0 1 8.75,35.4375 c -0.4392958,2.859818 -0.6802268,5.603726 -1.09375,8.46875 l 7.875,-3.9375 a 0.33523869,0.33523869 0 0 1 0.3125,0 L 23.75,43.90625 C 23.325996,41.056058 23.002636,38.365282 22.5625,35.5 a 0.33523869,0.33523869 0 0 1 0.0625,-0.25 0.33523869,0.33523869 0 0 1 0.03125,-0.0625 C 24.724574,33.114348 26.797672,30.914774 28.875,28.8125 26.120244,28.182918 22.935455,27.822408 20,27.34375 A 0.33523869,0.33523869 0 0 1 19.84375,27.25 0.33523869,0.33523869 0 0 1 19.75,27.15625 c -1.351345,-2.586406 -2.688575,-5.336553 -4.03125,-7.9375 z"
       transform="translate(0.28984682,-16.289846)"
       id="path3849"
       style="opacity:0.4;fill:none;stroke:url(#linearGradient3851-489);stroke-width:1;stroke-linecap:butt;stroke-linejoin:round;stroke-miterlimit:4;stroke-opacity:1;stroke-dasharray:none;stroke-dashoffset:0;marker:none;visibility:visible;display:inline;overflow:visible" />
    <path
       d="m 15.71875,18.53125 c -0.254446,0.374093 -2.346828,3.472786 -4.375,8.25 A 0.20608164,0.20608164 0 0 1 11.3125,26.8125 0.20608164,0.20608164 0 0 1 11.21875,26.875 0.20608164,0.20608164 0 0 1 11.1875,26.90625 c -3.0053006,0.490049 -7.0029859,1.038743 -9.3125,1.6875 1.5783275,2.00052 3.5604578,3.737007 5.34375,5.5625 l 20.25,-3.59375 c 0.582787,-0.584147 1.71282,-1.713072 2,-2 -2.871985,-0.776885 -6.239483,-1.134102 -9.25,-1.625 A 0.20608164,0.20608164 0 0 1 20.1875,26.90625 0.20608164,0.20608164 0 0 1 20.09375,26.84375 0.20608164,0.20608164 0 0 1 20.0625,26.8125 c -1.525162,-3.540869 -4.056294,-7.800982 -4.34375,-8.28125 z"
       transform="translate(0.28984682,-16.289846)"
       id="path3853"
       style="opacity:0.8;fill:url(#linearGradient3855-7);fill-opacity:1;fill-rule:nonzero;stroke:none;stroke-width:1;marker:none;visibility:visible;display:inline;overflow:visible;enable-background:accumulate" />
  </g>
</svg>

<svg xmlns="http://www.w3.org/2000/svg" xmlns:xlink="http://www.w3.org/1999/xlink" viewBox="0 0 32 32"><defs><linearGradient x1="11.566" y1="22.292" x2="15.215" y2="33.955" id="j" xlink:href="#a" gradientUnits="userSpaceOnUse" gradientTransform="translate(2.164 14.81) scale(.64445)"/><linearGradient id="a"><stop offset="0" stop-color="#fff" stop-opacity=".275"/><stop offset="1" stop-color="#fff" stop-opacity="0"/></linearGradient><linearGradient x1="29.647" y1="2" x2="29.647" y2="43.444" id="i" xlink:href="#b" gradientUnits="userSpaceOnUse" gradientTransform="translate(.243 16.823) scale(.64445)"/><linearGradient id="b"><stop offset="0" stop-color="#fff"/><stop offset="1" stop-color="#fff" stop-opacity="0"/></linearGradient><radialGradient cx="13.139" cy="25.625" r="13.931" fx="13.139" fy="25.625" id="g" xlink:href="#c" gradientUnits="userSpaceOnUse" gradientTransform="matrix(0 1.7104 -2.03826 0 63.162 -16.658)"/><linearGradient id="c"><stop offset="0" stop-color="#e8e8e8"/><stop offset=".262" stop-color="#d8d8d8"/><stop offset=".661" stop-color="#c2c2c2"/><stop offset="1" stop-color="#a5a5a5"/></linearGradient><linearGradient x1="21.483" y1="36.255" x2="21.483" y2="9.58" id="h" xlink:href="#d" gradientUnits="userSpaceOnUse" gradientTransform="matrix(1.0639 0 0 1.06774 -6.856 -9.163)"/><linearGradient id="d"><stop offset="0" stop-color="#707070"/><stop offset="1" stop-color="#9e9e9e"/></linearGradient><linearGradient id="e"><stop offset="0"/><stop offset="1" stop-opacity="0"/></linearGradient><radialGradient cx="62.625" cy="4.625" r="10.625" fx="62.625" fy="4.625" id="f" xlink:href="#e" gradientUnits="userSpaceOnUse" gradientTransform="matrix(1.41176 0 0 .5647 -72.412 23.388)"/></defs><path d="M31 26c0 3.314-6.716 6-15 6-8.284 0-15-2.686-15-6s6.716-6 15-6c8.284 0 15 2.686 15 6z" opacity=".3" fill="url(#f)" fill-rule="evenodd" overflow="visible"/><path d="M16 1.497c.98 0 4.134 7.91 4.926 8.49.792.576 9.264 1.143 9.566 2.078.303.934-6.22 6.39-6.52 7.325-.304.934 1.777 9.195.985 9.773-.792.577-7.978-3.96-8.957-3.96-.98 0-8.165 4.537-8.957 3.96-.792-.578 1.29-8.84.986-9.773-.306-.935-6.828-6.39-6.525-7.325.302-.935 8.774-1.502 9.566-2.08.793-.577 3.948-8.488 4.927-8.488z" fill="url(#g)" stroke="url(#h)" stroke-width=".992" stroke-linejoin="round" overflow="visible"/><path d="M24.03 28.15s-2.784-2.41-6.495-3.153m-9.8 3.153s2.783-2.41 6.494-3.153" opacity=".3" fill="none" stroke="#fff"/><path d="M15.72 19.22c-1.35 2.6-2.713 5.35-4.064 7.936a.335.335 0 0 1-.25.188c-2.906.474-5.92.99-8.844 1.468 2.056 2.09 4.04 4.254 6.094 6.313a.335.335 0 0 1 .094.313c-.44 2.86-.68 5.603-1.094 8.468l7.875-3.937a.335.335 0 0 1 .317 0l7.906 3.933c-.423-2.85-.746-5.54-1.187-8.406a.335.335 0 0 1 .063-.25.335.335 0 0 1 .03-.064c2.07-2.073 4.142-4.272 6.22-6.374-2.756-.63-5.94-.99-8.876-1.47a.335.335 0 0 1-.155-.094.335.335 0 0 1-.095-.095c-1.35-2.585-2.69-5.335-4.03-7.936z" transform="translate(.29 -16.29)" opacity=".4" fill="none" stroke="url(#i)" stroke-linejoin="round" overflow="visible"/><path d="M15.72 18.53c-.256.375-2.348 3.474-4.376 8.25a.206.206 0 0 1-.03.032.206.206 0 0 1-.095.063.206.206 0 0 1-.036.03c-3.005.49-7.002 1.04-9.312 1.69 1.578 2 3.56 3.736 5.344 5.56l20.25-3.593c.582-.584 1.712-1.713 2-2-2.873-.776-6.24-1.134-9.25-1.625a.206.206 0 0 1-.032-.03.206.206 0 0 1-.094-.063.206.206 0 0 1-.03-.032c-1.526-3.54-4.057-7.8-4.344-8.28z" transform="translate(.29 -16.29)" opacity=".8" fill="url(#j)" overflow="visible"/></svg>
